svgs/duotone/moon-over-sun.svg

<svg xmlns="http://www.w3.org/2000/svg" viewBox="0 0 512 512"><!--! Font Awesome Pro 6.0.0-alpha3 by @fontawesome - https://fontawesome.com License - https://fontawesome.com/license (Commercial License) --><defs><style>.fa-secondary{opacity:.4}</style></defs><path class="fa-primary" d="M342.8 326.6c-20.86 25.67-52.34 41.45-86.9 41.45C194 368 144 317.8 144 256c0-61.98 50.17-111.1 111.9-111.1c6.855 0 13.69 .5755 20.4 1.888c4.812 .7305 5.839 7.111 1.611 9.59c-27.42 15.61-44.33 44.77-44.33 76.27c0 54.98 50.02 96.69 104.3 86.33C342.6 317.1 345.1 322.8 342.8 326.6z"/><path class="fa-secondary" d="M507.8 339L450.2 256l57.6-83.01c9.703-13.98 1.693-33.32-15.05-36.34l-99.43-17.97l-17.97-99.43c-3.027-16.75-22.36-24.76-36.34-15.05L256 61.79L172.1 4.194C159-5.51 139.7 2.498 136.6 19.25L118.7 118.7L19.25 136.6c-16.75 3.027-24.76 22.36-15.05 36.34L61.8 256l-57.6 83.01c-9.703 13.98-1.695 33.32 15.05 36.35l99.43 17.97l17.97 99.43c3.027 16.75 22.36 24.76 36.34 15.05L256 450.2l83.01 57.6c13.98 9.703 33.32 1.695 36.34-15.05l17.97-99.43l99.43-17.97C509.5 372.3 517.5 352.1 507.8 339zM357.8 357.1c-56.15 56.15-147.6 56.15-203.8 0s-56.15-147.6 0-203.8c56.15-56.15 147.6-56.15 203.8 0C413.9 210.4 413.9 301.8 357.8 357.1z"/></svg>

<svg xmlns="http://www.w3.org/2000/svg" viewBox="0 0 512 512"><!-- Font Awesome Pro 6.0.0-alpha2 by @fontawesome - https://fontawesome.com License - https://fontawesome.com/license (Commercial License) --><defs><style>.fa-secondary{opacity:.4}</style></defs><path d="M507.807 339.01L450.203 256L507.807 172.986C517.51 159.003 509.5 139.669 492.752 136.642L393.323 118.675L375.356 19.248C372.328 2.498 352.994 -5.509 339.012 4.194L256 61.792L172.989 4.194C159.006 -5.509 139.672 2.498 136.645 19.248L118.678 118.675L19.248 136.642C2.5 139.669 -5.509 159.003 4.194 172.986L61.797 256L4.194 339.01C-5.509 352.995 2.498 372.329 19.248 375.356L118.678 393.323L136.645 492.751C139.672 509.502 159.006 517.509 172.989 507.806L256 450.204L339.012 507.806C352.994 517.509 372.328 509.502 375.356 492.751L393.323 393.323L492.752 375.356C509.502 372.329 517.51 352.995 507.807 339.01ZM357.793 357.981C301.643 414.132 210.17 414.132 154.02 357.981S97.869 210.357 154.02 154.206C210.17 98.054 301.643 98.054 357.793 154.206C413.944 210.357 413.944 301.83 357.793 357.981Z" class="fa-secondary"/><path d="M342.771 326.582C321.916 352.251 290.416 368.001 255.854 368.001C194.021 368.001 144 317.832 144 256C144 194.019 194.166 143.999 255.854 143.999C262.709 143.999 269.563 144.581 276.271 145.894C281.084 146.624 282.104 153.04 277.875 155.519C250.459 171.124 233.541 200.291 233.541 231.791C233.541 286.77 283.563 328.479 337.813 318.125C342.625 317.104 345.979 322.791 342.771 326.582Z" class="fa-primary"/></svg>
